X: 2494
T: Ballydesmond, The
R: polka
M: 2/4
K: Gmajor
|:G>A B/c/d|gf ed|eA AB|cd/c/ BA|
G>A Bd|gf ed|ea ef|g2 g2:|
ae ae|ae e>f|gd gd|gd d>e|
ae ae|ae e>f|g/f/e dB|A2 A2:|
|:D>E FA|dc BA|BE EF|GA/G/ FE|
D>E F/G/A|dc BA|Be Bc|d2 d2:|
|:eB eB|eB B>c|dA dA|dA A>B|
eB eB|eB B>c|d/c/A AF|E2 E2:|
|:A>B ce|ag fe|fB Bc|d2 cB|
A>B ce|ag fe|fb fg|a2 a2:|
bf bf|bf f>g|ae ae|ae ef/g/|
bf bf|b/a/g f>g|af ec|B2 B2:|

